X:1
T:Title
L:1/8
Q:1/4=110
M:6/8
K:D
V:1 treble nm="Church Organ, Staff"
V:1
 A F2 F F2 | G A2 d A2- | AA>B AGF | E D2 F A2 | A B2 B G2 | G A2 B A2- | A B2- B/ z/ A2 | %7
w: By~Arranged~by~Mr.~H.~S.~Irons * * *|||||||
 F E2- E/ z/ F2 | F F2 E F2 | E D2- DFA- | AAB- B/ z/ dc- | cBA- A2 A- | AAd- d/ z/ Ac- | %13
w: ||||||
 cBG- GBA- | AFG- G/ z/ EA- | AAD- D2 z |] %16
w: |||

